src/pos-icons/remote-tv.svg

<svg height="24" viewBox="0 0 24 24" width="24" xmlns="http://www.w3.org/2000/svg"><path d="m9 2c-1.11 0-2 .89-2 2v16c0 1.11.89 2 2 2h6c1.11 0 2-.89 2-2v-16c0-1.11-.89-2-2-2h-2v2h-2v-2zm2 4h2v2h2v2h-2v2h-2v-2h-2v-2h2zm-2 8h2v2h-2zm4 0h2v2h-2zm-4 4h2v2h-2zm4 0h2v2h-2z"/></svg>

<?xml version="1.0" encoding="UTF-8"?><!DOCTYPE svg PUBLIC "-//W3C//DTD SVG 1.1//EN" "http://www.w3.org/Graphics/SVG/1.1/DTD/svg11.dtd"><svg xmlns="http://www.w3.org/2000/svg" xmlns:xlink="http://www.w3.org/1999/xlink" version="1.1" id="mdi-remote-tv" width="24" height="24" viewBox="0 0 24 24"><path d="M9,2C7.89,2 7,2.89 7,4V20C7,21.11 7.89,22 9,22H15C16.11,22 17,21.11 17,20V4C17,2.89 16.11,2 15,2H13V4H11V2H9M11,6H13V8H15V10H13V12H11V10H9V8H11V6M9,14H11V16H9V14M13,14H15V16H13V14M9,18H11V20H9V18M13,18H15V20H13V18Z" /></svg>
